X:1
T:Fred Wilson's -- Hornpipe
R:hornpipe
B:Cole's 1000 Fiddle Tunes
M:C|
L:1/8
K:F
(uc>A)|F>Ac>A G>Bd>B|A>cf>g a>fc>A|\
B>dg>b A>cf>a|(3gag (3fed (3cdc (3BAG|
F>Ac>A G>Bd>B|A>cf>g a>fc>A|\
B>dg>f e>cd>e|f2a2f2:|
|:(uef)|g>c(3ccc a>c(3ccc|b>ca>c g>c(3ccc|\
b>ca>c g>fe>f|(3gag (3fed (3cdc (3BAG|
F>Ac>A G>Bd>B|A>cf>g a>fc>A|\
B>dg>f e>cd>e|f2a2f2:|
